src/topics/icons/linkedin.svg

<svg height="130" preserveAspectRatio="xMidYMid" viewBox="0 0 512 130" width="512" xmlns="http://www.w3.org/2000/svg"><g fill="#1a1918"><path d="m0 19.1635571h19.9868963v72.8047803h37.0106714v18.4427976h-56.9975677z"/><path d="m75.4304675 17.8111213c6.1520984 0 11.1452232 4.9931247 11.1452232 11.1398242 0 6.1565976-4.9931248 11.1380246-11.1452232 11.1380246-6.1457997 0-11.1389244-4.981427-11.1389244-11.1380246 0-6.1466995 4.9931247-11.1398242 11.1389244-11.1398242zm-9.6065237 30.7397961h19.2130474v61.8368226h-19.2130474z"/><path d="m95.662116 48.558116h18.441898v8.4520492h.25645c2.5591-4.8653497 8.836274-9.9853497 18.185448-9.9853497 19.468598 0 23.054397 12.8035993 23.054397 29.4494481v33.9134764h-19.212147v-30.0658279c0-7.1760984-.132274-16.3947979-9.994348-16.3947979-9.98715 0-11.52045 7.8158735-11.52045 15.8800985v30.5805273h-19.211248z"/><path d="m165.343606 19.1581582h19.204949v54.5347487l21.757751-25.1698841h23.546601l-25.197779 28.6297083 24.670482 33.2584039h-24.143185l-20.382819-30.5670296h-.251051v30.5670296h-19.204949z"/><path d="m286.551733 99.6798313c-6.152998 7.8158737-16.261624 12.3023967-26.255972 12.3023967-19.206749 0-34.576647-12.8143967-34.576647-32.6645197 0-19.8501231 15.369898-32.6537224 34.576647-32.6537224 17.940696 0 29.203796 12.8035993 29.203796 32.6537224v6.0198242h-44.568295c1.526102 7.301174 7.040225 12.0405483 14.470074 12.0405483 6.278073 0 10.500949-3.2033743 13.704323-7.5594235zm-16.261624-27.4014482c.125975-6.404949-4.868049-11.7831986-11.790397-11.7831986-8.44935 0-13.061849 5.7633744-13.56845 11.7831986z"/><path d="m362.567086 110.376942h-17.679747v-8.199199h-.249251c-2.955023 4.481125-10.375874 9.735199-19.087972 9.735199-18.448197 0-30.612921-13.3146995-30.612921-32.1444218 0-17.2928225 10.757399-33.1729209 28.429947-33.1729209 7.947248 0 15.374398 2.1766749 19.730447 8.1946995h.251951v-35.6321406h19.217546zm-33.056843-46.8745448c-9.598426 0-15.36 6.4094481-15.36 15.7505237 0 9.3590721 5.761574 15.754123 15.36 15.754123 9.614622 0 15.377096-6.3950509 15.377096-15.754123 0-9.3410756-5.762474-15.7505237-15.377096-15.7505237z"/></g><path d="m501.763599 0h-110.421033c-5.27657 0-9.563332 4.18238313-9.563332 9.33927592v110.88534308c0 5.161392 4.286762 9.350073 9.563332 9.350073h110.421033c5.285568 0 9.592127-4.188681 9.592127-9.350073v-110.88534308c0-5.15689279-4.306559-9.33927592-9.592127-9.33927592" fill="#006087"/><path d="m410.603304 17.8390158c6.1458 0 11.138025 4.9931248 11.138025 11.1398243 0 6.1511986-4.992225 11.146123-11.138025 11.146123-6.158397 0-11.144323-4.9949244-11.144323-11.146123 0-6.1466995 4.985926-11.1398243 11.144323-11.1398243zm-9.612822 30.7388963h19.218446v61.8368229h-19.218446z" fill="#fff"/><path d="m432.262974 48.5779121h18.436499v8.4484499h.25555c2.564499-4.8608506 8.834474-9.9871493 18.183648-9.9871493 19.461399 0 23.054398 12.8071985 23.054398 29.4566467v33.9188756h-19.204949v-30.0712271c0-7.1742988-.132275-16.3974974-9.98715-16.3974974-10.001546 0-11.533047 7.8122742-11.533047 15.8782988v30.5904257h-19.204949z" fill="#fff"/></svg>

<?xml version="1.0" encoding="UTF-8" standalone="no"?>
<svg width="512px" height="130px" viewBox="0 0 512 130" version="1.1" xmlns="http://www.w3.org/2000/svg" xmlns:xlink="http://www.w3.org/1999/xlink" preserveAspectRatio="xMidYMid">
	<g>
		<path d="M0,19.1635571 L19.9868963,19.1635571 L19.9868963,91.9683374 L56.9975677,91.9683374 L56.9975677,110.411135 L0,110.411135 L0,19.1635571" fill="#1A1918"></path>
		<path d="M75.4304675,17.8111213 C81.5825659,17.8111213 86.5756907,22.804246 86.5756907,28.9509455 C86.5756907,35.1075431 81.5825659,40.0889701 75.4304675,40.0889701 C69.2846678,40.0889701 64.2915431,35.1075431 64.2915431,28.9509455 C64.2915431,22.804246 69.2846678,17.8111213 75.4304675,17.8111213 L75.4304675,17.8111213 Z M65.8239438,48.5509174 L85.0369912,48.5509174 L85.0369912,110.38774 L65.8239438,110.38774 L65.8239438,48.5509174 Z" fill="#1A1918"></path>
		<path d="M95.662116,48.558116 L114.104014,48.558116 L114.104014,57.0101652 L114.360464,57.0101652 C116.919564,52.1448155 123.196738,47.0248155 132.545912,47.0248155 C152.01451,47.0248155 155.600309,59.8284148 155.600309,76.4742636 L155.600309,110.38774 L136.388162,110.38774 L136.388162,80.3219121 C136.388162,73.1458137 136.255888,63.9271142 126.393814,63.9271142 C116.406664,63.9271142 114.873364,71.7429877 114.873364,79.8072127 L114.873364,110.38774 L95.662116,110.38774 L95.662116,48.558116" fill="#1A1918"></path>
		<path d="M165.343606,19.1581582 L184.548555,19.1581582 L184.548555,73.6929069 L206.306306,48.5230228 L229.852907,48.5230228 L204.655128,77.1527311 L229.32561,110.411135 L205.182425,110.411135 L184.799606,79.8441054 L184.548555,79.8441054 L184.548555,110.411135 L165.343606,110.411135 L165.343606,19.1581582" fill="#1A1918"></path>
		<path d="M286.551733,99.6798313 C280.398735,107.495705 270.290109,111.982228 260.295761,111.982228 C241.089012,111.982228 225.719114,99.1678313 225.719114,79.3177083 C225.719114,59.4675852 241.089012,46.6639859 260.295761,46.6639859 C278.236457,46.6639859 289.499557,59.4675852 289.499557,79.3177083 L289.499557,85.3375325 L244.931262,85.3375325 C246.457364,92.6387065 251.971487,97.3780808 259.401336,97.3780808 C265.679409,97.3780808 269.902285,94.1747065 273.105659,89.8186573 L286.551733,99.6798313 L286.551733,99.6798313 Z M270.290109,72.2783831 C270.416084,65.8734341 265.42206,60.4951845 258.499712,60.4951845 C250.050362,60.4951845 245.437863,66.2585589 244.931262,72.2783831 L270.290109,72.2783831 L270.290109,72.2783831 Z" fill="#1A1918"></path>
		<path d="M362.567086,110.376942 L344.887339,110.376942 L344.887339,102.177743 L344.638088,102.177743 C341.683065,106.658868 334.262214,111.912942 325.550116,111.912942 C307.101919,111.912942 294.937195,98.5982425 294.937195,79.7685202 C294.937195,62.4756977 305.694594,46.5955993 323.367142,46.5955993 C331.31439,46.5955993 338.74154,48.7722742 343.097589,54.7902988 L343.34954,54.7902988 L343.34954,19.1581582 L362.567086,19.1581582 L362.567086,110.376942 L362.567086,110.376942 Z M329.510243,63.5023972 C319.911817,63.5023972 314.150243,69.9118453 314.150243,79.2529209 C314.150243,88.611993 319.911817,95.0070439 329.510243,95.0070439 C339.124865,95.0070439 344.887339,88.611993 344.887339,79.2529209 C344.887339,69.9118453 339.124865,63.5023972 329.510243,63.5023972 L329.510243,63.5023972 Z" fill="#1A1918"></path>
		<path d="M501.763599,0 L391.342566,0 C386.065996,0 381.779234,4.18238313 381.779234,9.33927592 L381.779234,120.224619 C381.779234,125.386011 386.065996,129.574692 391.342566,129.574692 L501.763599,129.574692 C507.049167,129.574692 511.355726,125.386011 511.355726,120.224619 L511.355726,9.33927592 C511.355726,4.18238313 507.049167,0 501.763599,0" fill="#006087"></path>
		<path d="M410.603304,17.8390158 C416.749104,17.8390158 421.741329,22.8321406 421.741329,28.9788401 C421.741329,35.1300387 416.749104,40.1249631 410.603304,40.1249631 C404.444907,40.1249631 399.458981,35.1300387 399.458981,28.9788401 C399.458981,22.8321406 404.444907,17.8390158 410.603304,17.8390158 L410.603304,17.8390158 Z M400.990482,48.5779121 L420.208928,48.5779121 L420.208928,110.414735 L400.990482,110.414735 L400.990482,48.5779121 Z" fill="#FFFFFF"></path>
		<path d="M432.262974,48.5779121 L450.699473,48.5779121 L450.699473,57.026362 L450.955023,57.026362 C453.519522,52.1655114 459.789497,47.0392127 469.138671,47.0392127 C488.60007,47.0392127 492.193069,59.8464112 492.193069,76.4958594 L492.193069,110.414735 L472.98812,110.414735 L472.98812,80.3435079 C472.98812,73.1692091 472.855845,63.9460105 463.00097,63.9460105 C452.999424,63.9460105 451.467923,71.7582847 451.467923,79.8243093 L451.467923,110.414735 L432.262974,110.414735 L432.262974,48.5779121" fill="#FFFFFF"></path>
	</g>
</svg>
